; generated by PrusaSlicer 2.9.0 on 2025-03-04 at 16:43:59 UTC


;
;
; 

; external perimeters extrusion width = 0.60mm
; perimeters extrusion width = 0.50mm
; infill extrusion width = 0.50mm
; solid infill extrusion width = 0.50mm
; top infill extrusion width = 0.45mm
; support material extrusion width = 0.38mm
; first layer extrusion width = 0.42mm

M73 P0 R50
M73 Q0 S51
M201 X1000 Y1000 Z200 E5000 ; sets maximum accelerations, mm/sec^2
M203 X200 Y200 Z12 E120 ; sets maximum feedrates, mm / sec
M204 S1250 T1250 ; sets acceleration (S) and retract acceleration (R), mm/sec^2
M205 X8.00 Y8.00 Z0.40 E4.50 ; sets the jerk limits, mm/sec
M205 S0 T0 ; sets the minimum extruding and travel feed rate, mm/sec

; printing object gyroscope v1 id:0 copy 0
; stop printing object gyroscope v1 id:0 copy 0

;TYPE:Custom
M862.3 P "MK3S" ; printer model check
M862.1 P0.4 ; nozzle diameter check
M115 U3.14.1 ; tell printer latest fw version
G90 ; use absolute coordinates
M83 ; extruder relative mode
M104 S215 ; set extruder temp
M140 S60 ; set bed temp
M190 S60 ; wait for bed temp
M109 S215 ; wait for extruder temp
G28 W ; home all without mesh bed level
G80 X69.3751 Y84.62 W104.367 H40.76 ; mesh bed levelling

G1 Z0.2 F720
G1 Y-3 F1000 ; go outside print area
G92 E0
G1 X60 E9 F1000 ; intro line
G1 X100 E12.5 F1000 ; intro line
M73 Q0 S50

G92 E0
M221 S95

; Don't change E values below. Excessive value can damage the printer.

M907 E538 ; set extruder motor current
G21 ; set units to millimeters
G90 ; use absolute coordinates
M83 ; use relative distances for extrusion

M900 K0.05 ; Filament gcode LA 1.5
M900 K30 ; Filament gcode LA 1.0




M107
;LAYER_CHANGE
;Z:0.2
;HEIGHT:0.2
G1 E-.8 F2100
G1 Z.6 F720
G1 X74.653 Y94.682 F10800
G1 Z.2 F720
G1 E.8 F2100
M204 S800
;TYPE:Skirt/Brim
;WIDTH:0.42
G1 F1200
G1 X76.109 Y93.765 E.05395
G1 X77.521 Y93.218 E.04748
G1 X78.85 Y92.95 E.04251
G1 X151.173 Y84.927 E2.28155
G1 X152.325 Y84.835 E.03624
G1 X154.38 Y84.834 E.06443
G1 X155.605 Y84.933 E.03853
G1 X157.661 Y85.271 E.06533
G1 X159.74 Y85.843 E.06761
G1 X160.894 Y86.266 E.03854
G1 X162.804 Y87.151 E.066
G1 X164.635 Y88.249 E.06694
G1 X165.634 Y88.966 E.03856
G1 X167.252 Y90.344 E.06664
G1 X168.708 Y91.877 E.06629
G1 X169.478 Y92.836 E.03856
G1 X170.67 Y94.601 E.06678
G1 X171.66 Y96.464 E.06615
G1 X172.146 Y97.593 E.03854
G1 X172.828 Y99.634 E.06747
G1 X173.277 Y101.673 E.06546
G1 X173.441 Y102.868 E.03782
G1 X173.553 Y104.941 E.06509
G1 X173.52 Y106.153 E.03802
G1 X173.295 Y108.22 E.06519
G1 X172.837 Y110.331 E.06773
G1 X172.476 Y111.507 E.03857
G1 X171.697 Y113.458 E.06587
G1 X171.171 Y114.515 E.03702
G1 X170.079 Y116.325 E.06628
G1 X168.795 Y118.019 E.06665
G1 X167.974 Y118.935 E.03857
G1 X166.435 Y120.389 E.06638
G1 X164.747 Y121.675 E.06654
G1 X163.711 Y122.337 E.03855
G1 X161.819 Y123.336 E.06708
G1 X159.868 Y124.115 E.06587
G1 X158.728 Y124.466 E.0374
G1 X156.689 Y124.916 E.06547
G1 X155.494 Y125.079 E.03782
G1 X153.421 Y125.192 E.06509
G1 X152.209 Y125.159 E.03802
G1 X80.975 Y118.377 E2.24359
G1 X79.569 Y118.047 E.04528
G1 X78.018 Y117.354 E.05326
G1 X76.973 Y116.653 E.03945
G1 X74.574 Y114.789 E.09526
G1 X72.072 Y112.387 E.10875
G1 X71.379 Y111.63 E.03218
G1 X70.546 Y110.378 E.04715
G1 X70.097 Y109.386 E.03414
G1 X69.806 Y108.449 E.03076
G1 X69.564 Y106.714 E.05493
G1 X69.629 Y105.369 E.04222
G1 X69.809 Y104.429 E.03001
G1 X71.954 Y98.471 E.19855
G1 X72.543 Y97.156 E.04518
G1 X73.608 Y95.662 E.05753
G1 X74.609 Y94.723 E.04303
M204 S1000
;WIPE_START
G1 F8640
G1 X74.653 Y94.682 E-.01389
G1 X76.109 Y93.765 E-.39732
G1 X77.521 Y93.218 E-.34964
G1 X77.687 Y93.184 E-.03915
;WIPE_END
G1 Z.6 F720
; printing object gyroscope v1 id:0 copy 0
G1 X128.832 Y106.107 F10800
G1 Z.2 F720
G1 E.8 F2100
M204 S800
;TYPE:Support material interface
;WIDTH:0.38
G1 F1200
G1 X128.591 Y106.162 E.00693
G1 X128.687 Y105.993 E.00545
M204 S1000
G1 X128.687 Y105.993 F10800
G1 X129.594 Y105.756
M204 S800
G1 F1200
G1 X129.618 Y105.475 E.0079
G1 X129.484 Y105.838 E.01085
G1 X129.542 Y105.896 E.0023
G1 X128.985 Y106.068 E.01634
G1 X128.799 Y105.882 E.00737
G1 X128.879 Y105.804 E.00313
G1 X128.759 Y105.593 E.0068
G1 X128.561 Y105.644 E.00573
G1 X127.885 Y104.968 E.0268
G1 X127.094 Y104.906 E.02224
G1 X127.921 Y105.734 E.0328
G1 X127.214 Y105.756 E.01983
G1 X126.365 Y104.906 E.03367
G1 X125.636 Y104.906 E.02043
G1 X126.485 Y105.756 E.03367
G1 X127.111 Y105.756 E.01755
G1 X127.146 Y106.031 E.00777
G1 X126.845 Y106.116 E.00877
G1 X127.001 Y106.272 E.00618
G1 X126.272 Y106.272 E.02043
G1 X125.474 Y106.022 E.02344
G1 X125.341 Y106.071 E.00397
G1 X125.542 Y106.272 E.00797
G1 X125.057 Y106.272 E.01359
G1 X125.199 Y106.133 E.00557
M204 S1000
G1 X125.199 Y106.133 F10800
G1 X124.567 Y106.323
M204 S800
;TYPE:Support material
;WIDTH:0.42
G1 F1200
G1 X124.507 Y106.124 E.00652
G1 X124.709 Y106.124 E.00633
G1 X124.6 Y106.277 E.00589
M204 S1000
;WIPE_START
G1 F8640
G1 X124.709 Y106.124 E-.04338
G1 X124.507 Y106.124 E-.04664
G1 X124.567 Y106.323 E-.04799
;WIPE_END
G1 E-.66199 F2100
G1 Z.6 F720
G1 X123.411 Y105.756 F10800
G1 Z.2 F720
G1 E.8 F2100
M204 S800
;TYPE:Support material interface
;WIDTH:0.38
G1 F1200
G1 X123.325 Y105.756 E.00241
G1 X123.307 Y106.053 E.00834
G1 X123.593 Y106.087 E.00807
G1 X123.789 Y106.002 E.00599
G1 X124.084 Y106.272 E.01121
G1 X123.355 Y106.272 E.02043
G1 X121.99 Y104.906 E.05413
G1 X122.719 Y104.906 E.02043
G1 X123.568 Y105.756 E.03367
G1 X123.75 Y105.756 E.0051
G1 X123.782 Y105.957 E.0057
G1 X123.833 Y105.756 E.00581
G1 X124.298 Y105.756 E.01303
G1 X123.448 Y104.906 E.03369
G1 X124.177 Y104.906 E.02043
G1 X125.027 Y105.756 E.03369
G1 X125.443 Y105.756 E.01166
G1 X125.479 Y105.963 E.00589
G1 X125.513 Y105.756 E.00588
G1 X125.756 Y105.756 E.00681
G1 X124.906 Y104.906 E.03369
G1 X125.478 Y104.906 E.01603
M204 S1000
;WIPE_START
G1 F8640
G1 X124.906 Y104.906 E-.13208
G1 X125.756 Y105.756 E-.27756
G1 X125.513 Y105.756 E-.05611
G1 X125.479 Y105.963 E-.04844
G1 X125.443 Y105.756 E-.04851
G1 X125.027 Y105.756 E-.09606
G1 X124.595 Y105.324 E-.14124
;WIPE_END
G1 Z.6 F720
G1 X127.866 Y104.456 F10800
G1 Z.2 F720
G1 E.8 F2100
M204 S800
;TYPE:Support material
;WIDTH:0.42
G1 F1200
G1 X128.152 Y104.502 E.00908
G1 X128.782 Y104.794 E.02177
G1 X129.201 Y105.111 E.01647
G1 X129.275 Y105.336 E.00743
G1 X128.713 Y104.911 E.02209
G1 X128.111 Y104.632 E.0208
G1 X127.513 Y104.539 E.01898
G1 X117.482 Y104.539 E.31451
G1 X116.884 Y104.632 E.01898
G1 X116.281 Y104.911 E.02083
G1 X115.898 Y105.2 E.01504
G1 X115.813 Y105.097 E.00419
G1 X116.213 Y104.794 E.01573
G1 X116.844 Y104.501 E.02181
G1 X117.471 Y104.404 E.01989
G1 X127.81 Y104.447 E.32417
M204 S1000
G1 X127.81 Y104.447 F10800
G1 X127.861 Y104.083
M204 S800
;TYPE:Support material interface
;WIDTH:0.38
G1 F1200
G1 X128.216 Y104.14 E.01008
G1 X127.618 Y103.972 E.01741
G1 X127.705 Y104.059 E.00345
G1 X126.953 Y104.036 E.02109
G1 X126.868 Y103.951 E.00337
G1 X126.138 Y103.951 E.02046
G1 X126.223 Y104.036 E.00337
G1 X125.494 Y104.036 E.02043
G1 X125.409 Y103.951 E.00337
G1 X124.68 Y103.951 E.02043
G1 X124.765 Y104.036 E.00337
G1 X124.036 Y104.036 E.02043
G1 X123.951 Y103.951 E.00337
G1 X123.222 Y103.951 E.02043
G1 X123.307 Y104.036 E.00337
G1 X122.577 Y104.036 E.02046
G1 X122.493 Y103.951 E.00335
G1 X121.763 Y103.951 E.02046
G1 X121.848 Y104.036 E.00337
G1 X121.119 Y104.036 E.02043
G1 X121.034 Y103.951 E.00337
G1 X120.305 Y103.951 E.02043
G1 X120.39 Y104.036 E.00337
G1 X119.661 Y104.036 E.02043
G1 X119.576 Y103.951 E.00337
G1 X118.202 Y104.036 E.03858
G1 X118.117 Y103.951 E.00337
G1 X117.509 Y103.951 E.01704
G1 X117.405 Y103.968 E.00295
G1 X117.473 Y104.036 E.0027
G1 X116.825 Y104.117 E.0183
M204 S1000
;WIPE_START
G1 F8640
G1 X117.473 Y104.036 E-.15079
G1 X117.405 Y103.968 E-.02221
G1 X117.509 Y103.951 E-.02433
G1 X118.117 Y103.951 E-.14039
G1 X118.202 Y104.036 E-.02776
G1 X119.576 Y103.951 E-.31787
G1 X119.661 Y104.036 E-.02776
G1 X120.046 Y104.036 E-.08889
;WIPE_END
G1 Z.6 F720
G1 X115.392 Y105.718 F10800
G1 Z.2 F720
G1 E.8 F2100
M204 S800
G1 F1200
G1 X115.432 Y105.889 E.00492
G1 X115.807 Y106.015 E.01109
G1 X115.355 Y105.564 E.0179
G1 X115.522 Y105.322 E.00824
G1 X115.672 Y105.505 E.00663
G1 X115.945 Y105.626 E.00837
G1 X116.06 Y105.539 E.00404
G1 X116.734 Y106.214 E.02674
G1 X117.521 Y106.272 E.02212
G1 X116.475 Y105.226 E.04146
G1 X116.974 Y104.995 E.01541
G1 X118.251 Y106.272 E.05062
G1 X118.98 Y106.272 E.02043
G1 X118.732 Y106.024 E.00983
G1 X119.33 Y106.272 E.01815
G1 X119.138 Y106.272 E.00538
M204 S1000
G1 X119.138 Y106.272 F10800
G1 X118.724 Y106.016
M204 S800
G1 F1200
G1 X117.615 Y104.906 E.04398
G1 X118.344 Y104.906 E.02043
G1 X119.193 Y105.756 E.03367
G1 X119.922 Y105.756 E.02043
G1 X119.073 Y104.906 E.03367
G1 X119.802 Y104.906 E.02043
G1 X120.652 Y105.756 E.03369
G1 X121.381 Y105.756 E.02043
G1 X120.531 Y104.906 E.03369
G1 X121.261 Y104.906 E.02046
G1 X122.11 Y105.756 E.03367
G1 X122.222 Y105.756 E.00314
G1 X122.26 Y105.906 E.00434
G1 X122.626 Y106.272 E.01451
G1 X121.893 Y106.269 E.02054
M204 S1000
;WIPE_START
G1 F8640
G1 X122.626 Y106.272 E-.16925
G1 X122.26 Y105.906 E-.11952
G1 X122.222 Y105.756 E-.03573
G1 X122.11 Y105.756 E-.02586
G1 X121.261 Y104.906 E-.2774
G1 X120.531 Y104.906 E-.16856
G1 X120.542 Y104.917 E-.00368
;WIPE_END
G1 Z.6 F720
G1 X120.396 Y106.029 F10800
G1 Z.2 F720
G1 E.8 F2100
M204 S800
G1 F1200
G1 X120.951 Y106.272 E.01698
G1 X120.438 Y106.272 E.01438
G1 X120.248 Y106.081 E.00755
G1 X119.915 Y106.272 E.01076
G1 X120.28 Y106.272 E.01023
M204 S1000
;WIPE_START
G1 F8640
G1 X119.915 Y106.272 E-.08428
G1 X120.248 Y106.081 E-.08864
G1 X120.438 Y106.272 E-.06221
G1 X120.951 Y106.272 E-.11845
G1 X120.396 Y106.029 E-.1399
;WIPE_END
G1 E-.30652 F2100
G1 Z.6 F720
G1 X133.868 Y94.695 F10800
G1 Z.2 F720
G1 E.8 F2100
M204 S800
;TYPE:Support material
;WIDTH:0.42
G1 F1200
G1 X134.404 Y94.782 E.01703
G1 X135.465 Y95.203 E.03579
G1 X136.412 Y95.843 E.03584
G1 X137.13 Y96.6 E.03271
G1 X136.095 Y98.989 E.08163
G1 X135.533 Y100.948 E.0639
G1 X135.193 Y102.958 E.06392
G1 X135.079 Y104.992 E.06387
G1 X135.193 Y107.042 E.06438
G1 X135.533 Y109.052 E.06392
G1 X136.095 Y111.011 E.0639
G1 X137.126 Y113.394 E.08141
G1 X136.818 Y114.014 E.02171
G1 X136.097 Y114.88 E.03533
G1 X135.285 Y115.556 E.03313
G1 X134.603 Y115.942 E.02457
G1 X133.764 Y116.222 E.02773
G1 X131.271 Y116.442 E.07847
G1 X130.168 Y116.089 E.03631
G1 X128.808 Y115.304 E.04924
G1 X127.989 Y114.501 E.03596
G1 X127.8 Y114.206 E.01099
G1 X126.625 Y114.021 E.0373
G1 X125.864 Y114.001 E.02387
G1 X125.061 Y113.872 E.0255
G1 X124.492 Y113.693 E.0187
G1 X123.898 Y114.209 E.02467
G1 X122.911 Y114.775 E.03567
G1 X121.861 Y115.129 E.03474
G1 X121.051 Y115.269 E.02577
M73 Q1 S50
G1 X119.529 Y115.244 E.04773
G1 X118.462 Y114.973 E.03452
G1 X117.641 Y114.629 E.02791
G1 X116.93 Y114.194 E.02613
G1 X115.939 Y114.144 E.03111
M73 P1 R50
G1 X115.476 Y114.026 E.01498
G1 X114.706 Y114.417 E.02708
G1 X113.598 Y114.724 E.03605
G1 X112.451 Y114.805 E.03605
G1 X111.275 Y114.644 E.03722
G1 X110.064 Y114.681 E.03799
G1 X109.732 Y114.788 E.01094
G1 X108.892 Y114.843 E.02639
G1 X107.891 Y114.682 E.03179
G1 X107.227 Y115.184 E.0261
G1 X106.185 Y115.667 E.03601
G1 X105.043 Y115.919 E.03667
G1 X103.879 Y115.92 E.0365
G1 X102.725 Y115.668 E.03704
G1 X101.647 Y115.162 E.03734
G1 X101.048 Y114.698 E.02376
G1 X99.894 Y115.093 E.03824
G1 X99.353 Y115.147 E.01705
G1 X98.816 Y115.545 E.02096
G1 X97.796 Y116.029 E.0354
G1 X96.675 Y116.298 E.03615
G1 X95.522 Y116.332 E.03617
G1 X94.658 Y116.177 E.02752
G1 X94.274 Y116.394 E.01383
G1 X93.209 Y116.748 E.03519
G1 X92.011 Y116.899 E.03786
G1 X90.9 Y116.825 E.03491
G1 X90.088 Y116.608 E.02635
G1 X89.548 Y116.698 E.01716
G1 X88.404 Y116.672 E.03588
G1 X87.324 Y116.442 E.03462
G1 X86.216 Y115.977 E.03768
G1 X84.834 Y115.984 E.04333
G1 X84.257 Y115.877 E.0184
G1 X83.708 Y116.078 E.01833
G1 X82.579 Y116.264 E.03588
G1 X81.435 Y116.237 E.03588
G1 X80.358 Y116.006 E.03454
G1 X79.23 Y115.531 E.03838
G1 X78.308 Y114.919 E.0347
G1 X77.402 Y113.993 E.04062
G1 X77.048 Y113.844 E.01204
G1 X76.089 Y113.21 E.03605
G1 X75.267 Y112.408 E.03601
G1 X74.782 Y111.714 E.02655
G1 X74.024 Y111.205 E.02863
G1 X73.169 Y110.371 E.03745
G1 X72.54 Y109.476 E.0343
G1 X72.091 Y108.484 E.03414
G1 X71.911 Y107.85 E.02066
G1 X71.752 Y106.716 E.0359
G1 X71.808 Y105.572 E.03591
G1 X71.914 Y105.03 E.01732
G1 X72.092 Y104.405 E.02038
G1 X72.54 Y103.416 E.03404
G1 X73.169 Y102.52 E.03432
G1 X73.732 Y101.951 E.0251
G1 X73.687 Y100.938 E.03179
G1 X73.741 Y100.348 E.01858
G1 X74.006 Y99.23 E.03603
G1 X74.207 Y98.724 E.01707
G1 X74.503 Y98.129 E.02084
G1 X75.133 Y97.232 E.03437
G1 X75.921 Y96.466 E.03446
G1 X76.951 Y95.785 E.03872
G1 X77.971 Y95.36 E.03465
G1 X79.092 Y95.125 E.03591
G1 X80.207 Y95.103 E.03497
G1 X81.354 Y95.297 E.03647
G1 X82.726 Y94.947 E.0444
G1 X83.875 Y94.918 E.03604
G1 X84.982 Y95.101 E.03518
G1 X85.574 Y95.305 E.01963
G1 X86.605 Y95.09 E.03302
G1 X87.717 Y95.066 E.03487
G1 X88.847 Y95.257 E.03593
G1 X89.922 Y95.654 E.03593
G1 X90.824 Y96.198 E.03303
G1 X91.407 Y96.152 E.01834
G1 X91.938 Y95.825 E.01955
G1 X93.219 Y95.387 E.04245
G1 X94.096 Y95.254 E.02781
G1 X95.173 Y95.252 E.03377
G1 X95.995 Y95.38 E.02608
G1 X96.921 Y95.679 E.03051
G1 X97.989 Y95.558 E.0337
G1 X99.138 Y95.659 E.03617
G1 X100.21 Y95.977 E.03506
G1 X101.266 Y96.534 E.03743
G1 X102.298 Y97.382 E.04188
G1 X103.004 Y96.836 E.02798
G1 X103.723 Y96.419 E.02606
G1 X104.722 Y96.077 E.03311
G1 X105.501 Y95.92 E.02492
G1 X106.813 Y95.926 E.04114
G1 X107.636 Y96.056 E.02612
G1 X108.186 Y96.263 E.01843
G1 X108.781 Y95.967 E.02084
G1 X109.89 Y95.663 E.03605
G1 X111.037 Y95.579 E.03606
G1 X112.177 Y95.716 E.036
G1 X113.391 Y96.138 E.0403
G1 X114.031 Y96.006 E.02049
G1 X115.225 Y95.344 E.04281
G1 X116.214 Y95.04 E.03244
G1 X117.348 Y94.919 E.03576
G1 X118.494 Y95.028 E.03609
G1 X119.56 Y95.353 E.03494
G1 X120.411 Y95.807 E.03024
G1 X121.395 Y95.596 E.03155
G1 X122.546 Y95.598 E.03609
G1 X123.67 Y95.842 E.03606
G1 X124.21 Y96.086 E.01858
G1 X125.015 Y95.694 E.02807
G1 X126.207 Y95.401 E.03849
G1 X127.307 Y95.372 E.0345
G1 X128.405 Y95.58 E.03504
G1 X128.974 Y95.302 E.01986
G1 X129.553 Y95.141 E.01884
G1 X130.127 Y95.019 E.0184
G1 X131.002 Y94.988 E.02745
G1 X132.136 Y94.663 E.03699
G1 X133.275 Y94.599 E.03577
G1 X133.813 Y94.686 E.01709
M204 S1000
G1 X133.813 Y94.686 F10800
G1 X117.482 Y103.583
M204 S800
G1 F1200
G1 X127.545 Y103.588 E.31552
G1 X128.099 Y103.677 E.01759
G1 X128.689 Y103.959 E.0205
G1 X129.265 Y104.409 E.02292
G1 X130.294 Y105.63 E.05007
G1 X129.992 Y105.886 E.01241
G1 X129.951 Y105.844 E.00184
G1 X129.874 Y106.168 E.01044
G1 X128.74 Y106.51 E.03714
G1 X127.526 Y106.639 E.03828
G1 X117.469 Y106.639 E.31533
G1 X116.255 Y106.51 E.03828
G1 X115.121 Y106.168 E.03714
G1 X115.044 Y105.844 E.01044
G1 X115.003 Y105.886 E.00184
G1 X114.701 Y105.63 E.01241
G1 X115.162 Y105.015 E.0241
G1 X115.729 Y104.409 E.02602
G1 X116.305 Y103.959 E.02292
G1 X116.896 Y103.677 E.02053
G1 X117.426 Y103.592 E.01683
M204 S1000
;WIPE_START
G1 F8640
G1 X116.896 Y103.677 E-.12394
G1 X116.305 Y103.959 E-.1512
G1 X115.729 Y104.409 E-.16878
G1 X115.162 Y105.015 E-.19162
G1 X114.735 Y105.585 E-.16446
;WIPE_END
G1 Z.6 F720
G1 X136.731 Y113.808 F10800
G1 Z.2 F720
G1 E.8 F2100
M204 S800
G1 F1200
G1 X136.731 Y113.369 E.01376
G1 X136.312 Y112.477 E.0309
G1 X136.312 Y114.091 E.05061
G1 X135.893 Y114.593 E.0205
G1 X135.893 Y111.44 E.09886
G1 X135.474 Y110.178 E.04169
G1 X135.474 Y114.956 E.14981
G1 X135.055 Y115.296 E.01692
G1 X135.055 Y108.39 E.21653
G1 X134.854 Y107.061 E.04214
G1 X134.739 Y105.012 E.06435
G1 X134.854 Y102.939 E.0651
G1 X135.055 Y101.61 E.04214
G1 X135.055 Y95.406 E.19452
G1 X134.636 Y95.24 E.01413
G1 X134.636 Y115.533 E.63627
G1 X134.217 Y115.713 E.0143
M73 P1 R49
G1 X134.217 Y95.096 E.64643
G1 X133.799 Y95.027 E.01328
G1 X133.799 Y115.853 E.65298
G1 X133.38 Y115.928 E.01335
G1 X133.38 Y94.96 E.65744
G1 X133.257 Y94.94 E.00391
G1 X132.961 Y94.956 E.00929
G1 X132.961 Y115.98 E.65919
G1 X132.542 Y116.028 E.01322
G1 X132.542 Y94.98 E.65995
G1 X132.123 Y95.019 E.01319
G1 X132.123 Y116.014 E.65828
